X:221
T:Master McDermott's
Z: id:dc-reel-202
M:C
L:1/8
K:D Major
FE|D2FA D2FA|d2fe dBB2|AFF2 DEFA|B2AF EGFE|!
D2FA D2FA|d2fe dBB2|AFF2 DEFA|BFAF D2:|!
FA|dff2 dff2|g2bg afef|dBB2 ABde|fdgf e2de|!
f2af g2bg|afef dBB2|AFF2 DFBF|AFEF D2:|!